assets/img/braze_icons/message-text-square-01.svg

<svg fill="none" height="24" viewBox="0 0 24 24" width="24" xmlns="http://www.w3.org/2000/svg"><path clip-rule="evenodd" d="m16.2413 2h-8.48259c-.80496-.00001-1.46933-.00002-2.01053.04419-.56209.04593-1.0788.14449-1.56413.39179-.75265.38349-1.36457.99541-1.74807 1.74806-.24729.48533-.34585 1.00204-.39178 1.56414-.04421.54119-.0442 1.20555-.04419 2.01052l-.00001 12.6123c-.00004.2352-.00009.475.01776.6715.01707.188.06228.5427.30993.853.28499.357.71713.5647 1.17394.5642.39698-.0004.70222-.1867.85965-.2908.1646-.1088.35182-.2587.5355-.4057l2.41314-1.9305c.51858-.4149.67254-.532.83253-.6137.16047-.082.33129-.1419.50782-.1782.17598-.0361.36938-.0408 1.03349-.0408h6.55754c.805 0 1.4693 0 2.0105-.0442.5621-.0459 1.0788-.1445 1.5642-.3918.7526-.3835 1.3645-.9954 1.748-1.748.2473-.4854.3459-1.0021.3918-1.5642.0442-.5412.0442-1.2055.0442-2.0105v-5.48262c0-.80496 0-1.46931-.0442-2.0105-.0459-.5621-.1445-1.07881-.3918-1.56414-.3835-.75265-.9954-1.36457-1.748-1.74806-.4854-.2473-1.0021-.34586-1.5642-.39179-.5412-.04421-1.2055-.0442-2.0105-.04419zm-9.2413 5.5c-.55228 0-1 .44772-1 1 0 .55229.44772 1 1 1h5c.5523 0 1-.44771 1-1 0-.55228-.4477-1-1-1zm0 3.5c-.55228 0-1 .4477-1 1s.44772 1 1 1h8c.5523 0 1-.4477 1-1s-.4477-1-1-1z" fill="#801ed7" fill-rule="evenodd"/></svg>

<svg width="24" height="24" viewBox="0 0 24 24" fill="none" xmlns="http://www.w3.org/2000/svg">
<path fill-rule="evenodd" clip-rule="evenodd" d="M16.2413 2H7.75871C6.95375 1.99999 6.28938 1.99998 5.74818 2.04419C5.18609 2.09012 4.66938 2.18868 4.18405 2.43598C3.4314 2.81947 2.81948 3.43139 2.43598 4.18404C2.18869 4.66937 2.09013 5.18608 2.0442 5.74818C1.99999 6.28937 2 6.95373 2.00001 7.7587L2 20.371C1.99996 20.6062 1.99991 20.846 2.01776 21.0425C2.03483 21.2305 2.08004 21.5852 2.32769 21.8955C2.61268 22.2525 3.04482 22.4602 3.50163 22.4597C3.89861 22.4593 4.20385 22.273 4.36128 22.1689C4.52588 22.0601 4.7131 21.9102 4.89678 21.7632L7.30992 19.8327C7.8285 19.4178 7.98246 19.3007 8.14245 19.219C8.30292 19.137 8.47374 19.0771 8.65027 19.0408C8.82625 19.0047 9.01965 19 9.68376 19H16.2413C17.0463 19 17.7106 19 18.2518 18.9558C18.8139 18.9099 19.3306 18.8113 19.816 18.564C20.5686 18.1805 21.1805 17.5686 21.564 16.816C21.8113 16.3306 21.9099 15.8139 21.9558 15.2518C22 14.7106 22 14.0463 22 13.2413V7.75868C22 6.95372 22 6.28937 21.9558 5.74818C21.9099 5.18608 21.8113 4.66937 21.564 4.18404C21.1805 3.43139 20.5686 2.81947 19.816 2.43598C19.3306 2.18868 18.8139 2.09012 18.2518 2.04419C17.7106 1.99998 17.0463 1.99999 16.2413 2ZM7 7.5C6.44772 7.5 6 7.94772 6 8.5C6 9.05229 6.44772 9.5 7 9.5H12C12.5523 9.5 13 9.05229 13 8.5C13 7.94772 12.5523 7.5 12 7.5H7ZM7 11C6.44772 11 6 11.4477 6 12C6 12.5523 6.44772 13 7 13H15C15.5523 13 16 12.5523 16 12C16 11.4477 15.5523 11 15 11H7Z" fill="#801ED7"/>
</svg>
